images/50438991.svg

<?xml version="1.0" encoding="UTF-8"?>
<svg xmlns="http://www.w3.org/2000/svg" xmlns:xlink="http://www.w3.org/1999/xlink" width="300pt" height="300pt" viewBox="0 0 300 300" version="1.1">
<defs>
<g>
<symbol overflow="visible" id="glyph0-0">
<path style="stroke:none;" d="M 0.453125 1.59375 L 0.453125 -6.34375 L 4.953125 -6.34375 L 4.953125 1.59375 Z M 0.953125 1.09375 L 4.453125 1.09375 L 4.453125 -5.84375 L 0.953125 -5.84375 Z M 0.953125 1.09375 "/>
</symbol>
<symbol overflow="visible" id="glyph0-1">
<path style="stroke:none;" d="M 3.546875 -5.953125 C 2.898438 -5.953125 2.382812 -5.710938 2 -5.234375 C 1.625 -4.753906 1.4375 -4.101562 1.4375 -3.28125 C 1.4375 -2.445312 1.625 -1.789062 2 -1.3125 C 2.382812 -0.832031 2.898438 -0.59375 3.546875 -0.59375 C 4.191406 -0.59375 4.703125 -0.832031 5.078125 -1.3125 C 5.453125 -1.789062 5.640625 -2.445312 5.640625 -3.28125 C 5.640625 -4.101562 5.453125 -4.753906 5.078125 -5.234375 C 4.703125 -5.710938 4.191406 -5.953125 3.546875 -5.953125 Z M 3.546875 -6.6875 C 4.460938 -6.6875 5.195312 -6.375 5.75 -5.75 C 6.300781 -5.132812 6.578125 -4.3125 6.578125 -3.28125 C 6.578125 -2.238281 6.300781 -1.410156 5.75 -0.796875 C 5.195312 -0.179688 4.460938 0.125 3.546875 0.125 C 2.617188 0.125 1.878906 -0.179688 1.328125 -0.796875 C 0.773438 -1.410156 0.5 -2.238281 0.5 -3.28125 C 0.5 -4.3125 0.773438 -5.132812 1.328125 -5.75 C 1.878906 -6.375 2.617188 -6.6875 3.546875 -6.6875 Z M 3.546875 -6.6875 "/>
</symbol>
<symbol overflow="visible" id="glyph0-2">
<path style="stroke:none;" d="M 0.890625 -6.5625 L 2.078125 -6.5625 L 4.984375 -1.078125 L 4.984375 -6.5625 L 5.84375 -6.5625 L 5.84375 0 L 4.65625 0 L 1.75 -5.484375 L 1.75 0 L 0.890625 0 Z M 0.890625 -6.5625 "/>
</symbol>
<symbol overflow="visible" id="glyph0-3">
<path style="stroke:none;" d="M 0.890625 -6.5625 L 1.765625 -6.5625 L 1.765625 -3.875 L 5 -3.875 L 5 -6.5625 L 5.890625 -6.5625 L 5.890625 0 L 5 0 L 5 -3.125 L 1.765625 -3.125 L 1.765625 0 L 0.890625 0 Z M 0.890625 -6.5625 "/>
</symbol>
</g>
</defs>
<g id="surface12505">
<rect x="0" y="0" width="300" height="300" style="fill:rgb(100%,100%,100%);fill-opacity:1;stroke:none;"/>
<path style="fill:none;stroke-width:1.2;stroke-linecap:butt;stroke-linejoin:miter;stroke:rgb(100%,0%,0%);stroke-opacity:1;stroke-miterlimit:10;" d="M 84.316406 194.390625 L 81.035156 182.902344 "/>
<path style="fill:none;stroke-width:1.2;stroke-linecap:butt;stroke-linejoin:miter;stroke:rgb(0%,0%,0%);stroke-opacity:1;stroke-miterlimit:10;" d="M 81.035156 182.902344 L 77.753906 171.414062 "/>
<path style="fill:none;stroke-width:1.2;stroke-linecap:butt;stroke-linejoin:miter;stroke:rgb(100%,0%,0%);stroke-opacity:1;stroke-miterlimit:10;" d="M 78.910156 195.933594 L 75.628906 184.445312 "/>
<path style="fill:none;stroke-width:1.2;stroke-linecap:butt;stroke-linejoin:miter;stroke:rgb(0%,0%,0%);stroke-opacity:1;stroke-miterlimit:10;" d="M 75.628906 184.445312 L 72.347656 172.957031 "/>
<path style=" stroke:none;fill-rule:nonzero;fill:rgb(100%,100%,100%);fill-opacity:1;" d="M 77.613281 189.664062 L 85.613281 189.664062 L 85.613281 200.664062 L 77.613281 200.664062 Z M 77.613281 189.664062 "/>
<g style="fill:rgb(100%,0%,0%);fill-opacity:1;">
  <use xlink:href="#glyph0-1" x="77.613281" y="198.327148"/>
</g>
<path style="fill:none;stroke-width:1.2;stroke-linecap:butt;stroke-linejoin:miter;stroke:rgb(0%,0%,0%);stroke-opacity:1;stroke-miterlimit:10;" d="M 75.050781 172.183594 L 63.457031 169.28125 "/>
<path style="fill:none;stroke-width:1.2;stroke-linecap:butt;stroke-linejoin:miter;stroke:rgb(0%,0%,100%);stroke-opacity:1;stroke-miterlimit:10;" d="M 63.457031 169.28125 L 51.867188 166.378906 "/>
<path style="fill:none;stroke-width:1.2;stroke-linecap:butt;stroke-linejoin:miter;stroke:rgb(0%,0%,0%);stroke-opacity:1;stroke-miterlimit:10;" d="M 75.050781 172.183594 L 91.667969 155.011719 "/>
<path style="fill:none;stroke-width:1.2;stroke-linecap:butt;stroke-linejoin:miter;stroke:rgb(0%,0%,100%);stroke-opacity:1;stroke-miterlimit:10;" d="M 51.867188 166.378906 L 43.558594 174.964844 "/>
<path style="fill:none;stroke-width:1.2;stroke-linecap:butt;stroke-linejoin:miter;stroke:rgb(0%,0%,0%);stroke-opacity:1;stroke-miterlimit:10;" d="M 43.558594 174.964844 L 35.25 183.550781 "/>
<path style=" stroke:none;fill-rule:nonzero;fill:rgb(100%,100%,100%);fill-opacity:1;" d="M 44.867188 160.878906 L 58.867188 160.878906 L 58.867188 171.878906 L 44.867188 171.878906 Z M 44.867188 160.878906 "/>
<g style="fill:rgb(0%,0%,100%);fill-opacity:1;">
  <use xlink:href="#glyph0-2" x="44.867188" y="169.541992"/>
  <use xlink:href="#glyph0-3" x="51.844727" y="169.541992"/>
</g>
<path style="fill:none;stroke-width:1.2;stroke-linecap:butt;stroke-linejoin:miter;stroke:rgb(0%,0%,0%);stroke-opacity:1;stroke-miterlimit:10;" d="M 91.667969 155.011719 L 85.105469 132.035156 "/>
<path style="fill:none;stroke-width:1.2;stroke-linecap:butt;stroke-linejoin:miter;stroke:rgb(0%,0%,0%);stroke-opacity:1;stroke-miterlimit:10;" d="M 96.417969 151.171875 L 91.167969 132.789062 "/>
<path style="fill:none;stroke-width:1.2;stroke-linecap:butt;stroke-linejoin:miter;stroke:rgb(0%,0%,0%);stroke-opacity:1;stroke-miterlimit:10;" d="M 114.847656 160.816406 L 91.667969 155.011719 "/>
<path style="fill:none;stroke-width:1.2;stroke-linecap:butt;stroke-linejoin:miter;stroke:rgb(0%,0%,0%);stroke-opacity:1;stroke-miterlimit:10;" d="M 85.105469 132.035156 L 101.722656 114.863281 "/>
<path style="fill:none;stroke-width:1.2;stroke-linecap:butt;stroke-linejoin:miter;stroke:rgb(0%,0%,0%);stroke-opacity:1;stroke-miterlimit:10;" d="M 101.722656 114.863281 L 124.902344 120.667969 "/>
<path style="fill:none;stroke-width:1.2;stroke-linecap:butt;stroke-linejoin:miter;stroke:rgb(0%,0%,0%);stroke-opacity:1;stroke-miterlimit:10;" d="M 102.675781 120.898438 L 121.21875 125.542969 "/>
<path style="fill:none;stroke-width:1.2;stroke-linecap:butt;stroke-linejoin:miter;stroke:rgb(0%,0%,0%);stroke-opacity:1;stroke-miterlimit:10;" d="M 124.902344 120.667969 L 133.214844 112.082031 "/>
<path style="fill:none;stroke-width:1.2;stroke-linecap:butt;stroke-linejoin:miter;stroke:rgb(0%,0%,100%);stroke-opacity:1;stroke-miterlimit:10;" d="M 133.214844 112.082031 L 141.523438 103.496094 "/>
<path style="fill:none;stroke-width:1.2;stroke-linecap:butt;stroke-linejoin:miter;stroke:rgb(0%,0%,0%);stroke-opacity:1;stroke-miterlimit:10;" d="M 124.902344 120.667969 L 131.46875 143.644531 "/>
<path style="fill:none;stroke-width:1.2;stroke-linecap:butt;stroke-linejoin:miter;stroke:rgb(0%,0%,100%);stroke-opacity:1;stroke-miterlimit:10;" d="M 141.523438 103.496094 L 153.113281 106.398438 "/>
<path style="fill:none;stroke-width:1.2;stroke-linecap:butt;stroke-linejoin:miter;stroke:rgb(0%,0%,0%);stroke-opacity:1;stroke-miterlimit:10;" d="M 153.113281 106.398438 L 164.703125 109.300781 "/>
<path style=" stroke:none;fill-rule:nonzero;fill:rgb(100%,100%,100%);fill-opacity:1;" d="M 134.523438 97.996094 L 148.523438 97.996094 L 148.523438 108.996094 L 134.523438 108.996094 Z M 134.523438 97.996094 "/>
<g style="fill:rgb(0%,0%,100%);fill-opacity:1;">
  <use xlink:href="#glyph0-2" x="134.523438" y="106.65918"/>
  <use xlink:href="#glyph0-3" x="141.500977" y="106.65918"/>
</g>
<path style="fill:none;stroke-width:1.2;stroke-linecap:butt;stroke-linejoin:miter;stroke:rgb(0%,0%,0%);stroke-opacity:1;stroke-miterlimit:10;" d="M 164.703125 109.300781 L 167.984375 120.789062 "/>
<path style="fill:none;stroke-width:1.2;stroke-linecap:butt;stroke-linejoin:miter;stroke:rgb(0%,0%,100%);stroke-opacity:1;stroke-miterlimit:10;" d="M 167.984375 120.789062 L 171.265625 132.277344 "/>
<path style="fill:none;stroke-width:1.2;stroke-linecap:butt;stroke-linejoin:miter;stroke:rgb(0%,0%,0%);stroke-opacity:1;stroke-miterlimit:10;" d="M 170.765625 110.054688 L 173.390625 119.246094 "/>
<path style="fill:none;stroke-width:1.2;stroke-linecap:butt;stroke-linejoin:miter;stroke:rgb(0%,0%,100%);stroke-opacity:1;stroke-miterlimit:10;" d="M 173.390625 119.246094 L 176.015625 128.4375 "/>
<path style="fill:none;stroke-width:1.2;stroke-linecap:butt;stroke-linejoin:miter;stroke:rgb(0%,0%,100%);stroke-opacity:1;stroke-miterlimit:10;" d="M 181.320312 92.128906 L 173.011719 100.714844 "/>
<path style="fill:none;stroke-width:1.2;stroke-linecap:butt;stroke-linejoin:miter;stroke:rgb(0%,0%,0%);stroke-opacity:1;stroke-miterlimit:10;" d="M 173.011719 100.714844 L 164.703125 109.300781 "/>
<path style="fill:none;stroke-width:1.2;stroke-linecap:butt;stroke-linejoin:miter;stroke:rgb(0%,0%,100%);stroke-opacity:1;stroke-miterlimit:10;" d="M 171.265625 132.277344 L 182.855469 135.179688 "/>
<path style="fill:none;stroke-width:1.2;stroke-linecap:butt;stroke-linejoin:miter;stroke:rgb(0%,0%,0%);stroke-opacity:1;stroke-miterlimit:10;" d="M 182.855469 135.179688 L 194.445312 138.082031 "/>
<path style=" stroke:none;fill-rule:nonzero;fill:rgb(100%,100%,100%);fill-opacity:1;" d="M 168.265625 126.777344 L 175.265625 126.777344 L 175.265625 137.777344 L 168.265625 137.777344 Z M 168.265625 126.777344 "/>
<g style="fill:rgb(0%,0%,100%);fill-opacity:1;">
  <use xlink:href="#glyph0-2" x="168.265625" y="135.44043"/>
</g>
<path style="fill:none;stroke-width:1.2;stroke-linecap:butt;stroke-linejoin:miter;stroke:rgb(0%,0%,0%);stroke-opacity:1;stroke-miterlimit:10;" d="M 194.445312 138.082031 L 211.066406 120.910156 "/>
<path style="fill:none;stroke-width:1.2;stroke-linecap:butt;stroke-linejoin:miter;stroke:rgb(0%,0%,0%);stroke-opacity:1;stroke-miterlimit:10;" d="M 192.066406 132.457031 L 205.363281 118.71875 "/>
<path style="fill:none;stroke-width:1.2;stroke-linecap:butt;stroke-linejoin:miter;stroke:rgb(0%,0%,0%);stroke-opacity:1;stroke-miterlimit:10;" d="M 194.445312 138.082031 L 201.011719 161.0625 "/>
<path style="fill:none;stroke-width:1.2;stroke-linecap:butt;stroke-linejoin:miter;stroke:rgb(0%,0%,0%);stroke-opacity:1;stroke-miterlimit:10;" d="M 211.066406 120.910156 L 204.503906 97.933594 "/>
<path style="fill:none;stroke-width:1.2;stroke-linecap:butt;stroke-linejoin:miter;stroke:rgb(0%,0%,0%);stroke-opacity:1;stroke-miterlimit:10;" d="M 204.503906 97.933594 L 192.910156 95.03125 "/>
<path style="fill:none;stroke-width:1.2;stroke-linecap:butt;stroke-linejoin:miter;stroke:rgb(0%,0%,100%);stroke-opacity:1;stroke-miterlimit:10;" d="M 192.910156 95.03125 L 181.320312 92.128906 "/>
<path style="fill:none;stroke-width:1.2;stroke-linecap:butt;stroke-linejoin:miter;stroke:rgb(0%,0%,0%);stroke-opacity:1;stroke-miterlimit:10;" d="M 200.820312 102.808594 L 191.546875 100.484375 "/>
<path style="fill:none;stroke-width:1.2;stroke-linecap:butt;stroke-linejoin:miter;stroke:rgb(0%,0%,100%);stroke-opacity:1;stroke-miterlimit:10;" d="M 191.546875 100.484375 L 182.273438 98.164062 "/>
<path style=" stroke:none;fill-rule:nonzero;fill:rgb(100%,100%,100%);fill-opacity:1;" d="M 178.320312 86.628906 L 185.320312 86.628906 L 185.320312 97.628906 L 178.320312 97.628906 Z M 178.320312 86.628906 "/>
<g style="fill:rgb(0%,0%,100%);fill-opacity:1;">
  <use xlink:href="#glyph0-2" x="178.320312" y="95.291992"/>
</g>
<path style="fill:none;stroke-width:1.2;stroke-linecap:butt;stroke-linejoin:miter;stroke:rgb(0%,0%,0%);stroke-opacity:1;stroke-miterlimit:10;" d="M 201.011719 161.0625 L 212.234375 165.160156 "/>
<path style="fill:none;stroke-width:1.2;stroke-linecap:butt;stroke-linejoin:miter;stroke:rgb(0%,0%,100%);stroke-opacity:1;stroke-miterlimit:10;" d="M 212.234375 165.160156 L 223.457031 169.257812 "/>
<path style="fill:none;stroke-width:1.2;stroke-linecap:butt;stroke-linejoin:miter;stroke:rgb(0%,0%,0%);stroke-opacity:1;stroke-miterlimit:10;" d="M 186.277344 179.878906 L 201.011719 161.0625 "/>
<path style="fill:none;stroke-width:1.2;stroke-linecap:butt;stroke-linejoin:miter;stroke:rgb(0%,0%,0%);stroke-opacity:1;stroke-miterlimit:10;" d="M 192.179688 181.460938 L 203.964844 166.410156 "/>
<path style="fill:none;stroke-width:1.2;stroke-linecap:butt;stroke-linejoin:miter;stroke:rgb(0%,0%,100%);stroke-opacity:1;stroke-miterlimit:10;" d="M 223.457031 169.257812 L 233.371094 162.585938 "/>
<path style="fill:none;stroke-width:1.2;stroke-linecap:butt;stroke-linejoin:miter;stroke:rgb(0%,0%,0%);stroke-opacity:1;stroke-miterlimit:10;" d="M 233.371094 162.585938 L 243.28125 155.917969 "/>
<path style="fill:none;stroke-width:1.2;stroke-linecap:butt;stroke-linejoin:miter;stroke:rgb(0%,0%,100%);stroke-opacity:1;stroke-miterlimit:10;" d="M 223.457031 169.257812 L 223.027344 181.199219 "/>
<path style="fill:none;stroke-width:1.2;stroke-linecap:butt;stroke-linejoin:miter;stroke:rgb(0%,0%,0%);stroke-opacity:1;stroke-miterlimit:10;" d="M 223.027344 181.199219 L 222.597656 193.140625 "/>
<path style=" stroke:none;fill-rule:nonzero;fill:rgb(100%,100%,100%);fill-opacity:1;" d="M 220.457031 163.757812 L 227.457031 163.757812 L 227.457031 174.757812 L 220.457031 174.757812 Z M 220.457031 163.757812 "/>
<g style="fill:rgb(0%,0%,100%);fill-opacity:1;">
  <use xlink:href="#glyph0-2" x="220.457031" y="172.420898"/>
</g>
<path style="fill:none;stroke-width:1.2;stroke-linecap:butt;stroke-linejoin:miter;stroke:rgb(0%,0%,0%);stroke-opacity:1;stroke-miterlimit:10;" d="M 243.28125 155.917969 L 264.75 166.414062 "/>
<path style="fill:none;stroke-width:1.2;stroke-linecap:butt;stroke-linejoin:miter;stroke:rgb(0%,0%,0%);stroke-opacity:1;stroke-miterlimit:10;" d="M 243.28125 155.917969 L 241.640625 132.074219 "/>
<path style="fill:none;stroke-width:1.2;stroke-linecap:butt;stroke-linejoin:miter;stroke:rgb(0%,0%,0%);stroke-opacity:1;stroke-miterlimit:10;" d="M 222.597656 193.140625 L 211.109375 196.421875 "/>
<path style="fill:none;stroke-width:1.2;stroke-linecap:butt;stroke-linejoin:miter;stroke:rgb(0%,0%,100%);stroke-opacity:1;stroke-miterlimit:10;" d="M 211.109375 196.421875 L 199.621094 199.703125 "/>
<path style="fill:none;stroke-width:1.2;stroke-linecap:butt;stroke-linejoin:miter;stroke:rgb(0%,0%,0%);stroke-opacity:1;stroke-miterlimit:10;" d="M 218.757812 188.390625 L 209.566406 191.015625 "/>
<path style="fill:none;stroke-width:1.2;stroke-linecap:butt;stroke-linejoin:miter;stroke:rgb(0%,0%,100%);stroke-opacity:1;stroke-miterlimit:10;" d="M 209.566406 191.015625 L 200.375 193.640625 "/>
<path style="fill:none;stroke-width:1.2;stroke-linecap:butt;stroke-linejoin:miter;stroke:rgb(0%,0%,0%);stroke-opacity:1;stroke-miterlimit:10;" d="M 222.597656 193.140625 L 241.414062 207.871094 "/>
<path style="fill:none;stroke-width:1.2;stroke-linecap:butt;stroke-linejoin:miter;stroke:rgb(0%,0%,100%);stroke-opacity:1;stroke-miterlimit:10;" d="M 199.621094 199.703125 L 192.949219 189.789062 "/>
<path style="fill:none;stroke-width:1.2;stroke-linecap:butt;stroke-linejoin:miter;stroke:rgb(0%,0%,0%);stroke-opacity:1;stroke-miterlimit:10;" d="M 192.949219 189.789062 L 186.277344 179.878906 "/>
<path style=" stroke:none;fill-rule:nonzero;fill:rgb(100%,100%,100%);fill-opacity:1;" d="M 196.621094 194.203125 L 203.621094 194.203125 L 203.621094 205.203125 L 196.621094 205.203125 Z M 196.621094 194.203125 "/>
<g style="fill:rgb(0%,0%,100%);fill-opacity:1;">
  <use xlink:href="#glyph0-2" x="196.621094" y="202.866211"/>
</g>
<path style="fill:none;stroke-width:1.2;stroke-linecap:butt;stroke-linejoin:miter;stroke:rgb(0%,0%,0%);stroke-opacity:1;stroke-miterlimit:10;" d="M 131.46875 143.644531 L 114.847656 160.816406 "/>
<path style="fill:none;stroke-width:1.2;stroke-linecap:butt;stroke-linejoin:miter;stroke:rgb(0%,0%,0%);stroke-opacity:1;stroke-miterlimit:10;" d="M 125.765625 141.453125 L 112.46875 155.191406 "/>
</g>
</svg>

<svg xmlns="http://www.w3.org/2000/svg" xmlns:xlink="http://www.w3.org/1999/xlink" width="300pt" height="300pt" viewBox="0 0 300 300"><defs><symbol overflow="visible"><path d="M.453 1.594v-7.938h4.5v7.938zm.5-.5h3.5v-6.938h-3.5zm0 0"/></symbol><symbol overflow="visible" id="a"><path d="M3.547-5.953c-.65 0-1.164.242-1.547.72-.375.48-.563 1.13-.563 1.952 0 .835.188 1.49.563 1.967.383.48.898.72 1.547.72.644 0 1.156-.24 1.53-.72.376-.476.564-1.132.564-1.968 0-.822-.187-1.474-.562-1.954-.375-.477-.887-.72-1.53-.72zm0-.734c.914 0 1.648.312 2.203.937.55.617.828 1.438.828 2.47 0 1.042-.277 1.87-.828 2.483-.555.617-1.29.922-2.203.922-.93 0-1.668-.305-2.22-.922C.774-1.41.5-2.237.5-3.28c0-1.033.273-1.853.828-2.47.55-.625 1.29-.938 2.22-.938zm0 0"/></symbol><symbol overflow="visible" id="b"><path d="M.89-6.563H2.08l2.906 5.485v-5.484h.86V0H4.656L1.75-5.484V0H.89zm0 0"/></symbol><symbol overflow="visible" id="c"><path d="M.89-6.563h.876v2.688H5v-2.688h.89V0H5v-3.125H1.766V0H.89zm0 0"/></symbol></defs><g><path fill="#fff" d="M0 0h300v300H0z"/><path d="M84.316 194.39l-3.28-11.488" stroke-width="1.2" stroke="#f00" stroke-miterlimit="10" fill="none"/><path d="M81.035 182.902l-3.28-11.488" stroke-width="1.2" stroke="#000" stroke-miterlimit="10" fill="none"/><path d="M78.91 195.934l-3.28-11.49" stroke-width="1.2" stroke="#f00" stroke-miterlimit="10" fill="none"/><path d="M75.63 184.445l-3.282-11.488" stroke-width="1.2" stroke="#000" stroke-miterlimit="10" fill="none"/><path d="M77.613 189.664h8v11h-8zm0 0" fill="#fff"/><use xlink:href="#a" x="77.613" y="198.327" fill="#f00"/><path d="M75.05 172.184l-11.593-2.903" stroke-width="1.2" stroke="#000" stroke-miterlimit="10" fill="none"/><path d="M63.457 169.28l-11.59-2.9" stroke-width="1.2" stroke="#00f" stroke-miterlimit="10" fill="none"/><path d="M75.05 172.184l16.618-17.172" stroke-width="1.2" stroke="#000" stroke-miterlimit="10" fill="none"/><path d="M51.867 166.38l-8.308 8.585" stroke-width="1.2" stroke="#00f" stroke-miterlimit="10" fill="none"/><path d="M43.56 174.965l-8.31 8.586" stroke-width="1.2" stroke="#000" stroke-miterlimit="10" fill="none"/><path d="M44.867 160.88h14v11h-14zm0 0" fill="#fff"/><g fill="#00f"><use xlink:href="#b" x="44.867" y="169.542"/><use xlink:href="#c" x="51.845" y="169.542"/></g><path d="M91.668 155.012l-6.563-22.977M96.418 151.172l-5.25-18.383M114.848 160.816l-23.18-5.804M85.105 132.035l16.618-17.172M101.723 114.863l23.18 5.805M102.676 120.898l18.543 4.645M124.902 120.668l8.313-8.586" stroke-width="1.2" stroke="#000" stroke-miterlimit="10" fill="none"/><path d="M133.215 112.082l8.308-8.586" stroke-width="1.2" stroke="#00f" stroke-miterlimit="10" fill="none"/><path d="M124.902 120.668l6.567 22.977" stroke-width="1.2" stroke="#000" stroke-miterlimit="10" fill="none"/><path d="M141.523 103.496l11.59 2.902" stroke-width="1.2" stroke="#00f" stroke-miterlimit="10" fill="none"/><path d="M153.113 106.398l11.59 2.903" stroke-width="1.2" stroke="#000" stroke-miterlimit="10" fill="none"/><path d="M134.523 97.996h14v11h-14zm0 0" fill="#fff"/><g fill="#00f"><use xlink:href="#b" x="134.523" y="106.659"/><use xlink:href="#c" x="141.501" y="106.659"/></g><path d="M164.703 109.3l3.28 11.49" stroke-width="1.2" stroke="#000" stroke-miterlimit="10" fill="none"/><path d="M167.984 120.79l3.282 11.487" stroke-width="1.2" stroke="#00f" stroke-miterlimit="10" fill="none"/><path d="M170.766 110.055l2.625 9.19" stroke-width="1.2" stroke="#000" stroke-miterlimit="10" fill="none"/><path d="M173.39 119.246l2.626 9.192M181.32 92.13l-8.308 8.585" stroke-width="1.2" stroke="#00f" stroke-miterlimit="10" fill="none"/><path d="M173.012 100.715l-8.31 8.586" stroke-width="1.2" stroke="#000" stroke-miterlimit="10" fill="none"/><path d="M171.266 132.277l11.59 2.903" stroke-width="1.2" stroke="#00f" stroke-miterlimit="10" fill="none"/><path d="M182.855 135.18l11.59 2.902" stroke-width="1.2" stroke="#000" stroke-miterlimit="10" fill="none"/><path d="M168.266 126.777h7v11h-7zm0 0" fill="#fff"/><use xlink:href="#b" x="168.266" y="135.44" fill="#00f"/><path d="M194.445 138.082l16.62-17.172M192.066 132.457l13.297-13.738M194.445 138.082l6.567 22.98M211.066 120.91l-6.562-22.976M204.504 97.934L192.91 95.03" stroke-width="1.2" stroke="#000" stroke-miterlimit="10" fill="none"/><path d="M192.91 95.03l-11.59-2.9" stroke-width="1.2" stroke="#00f" stroke-miterlimit="10" fill="none"/><path d="M200.82 102.81l-9.273-2.326" stroke-width="1.2" stroke="#000" stroke-miterlimit="10" fill="none"/><path d="M191.547 100.484l-9.274-2.32" stroke-width="1.2" stroke="#00f" stroke-miterlimit="10" fill="none"/><path d="M178.32 86.63h7v11h-7zm0 0" fill="#fff"/><use xlink:href="#b" x="178.32" y="95.292" fill="#00f"/><path d="M201.012 161.063l11.222 4.097" stroke-width="1.2" stroke="#000" stroke-miterlimit="10" fill="none"/><path d="M212.234 165.16l11.223 4.098" stroke-width="1.2" stroke="#00f" stroke-miterlimit="10" fill="none"/><path d="M186.277 179.88l14.735-18.817M192.18 181.46l11.785-15.05" stroke-width="1.2" stroke="#000" stroke-miterlimit="10" fill="none"/><path d="M223.457 169.258l9.914-6.672" stroke-width="1.2" stroke="#00f" stroke-miterlimit="10" fill="none"/><path d="M233.37 162.586l9.91-6.668" stroke-width="1.2" stroke="#000" stroke-miterlimit="10" fill="none"/><path d="M223.457 169.258l-.43 11.94" stroke-width="1.2" stroke="#00f" stroke-miterlimit="10" fill="none"/><path d="M223.027 181.2l-.43 11.94" stroke-width="1.2" stroke="#000" stroke-miterlimit="10" fill="none"/><path d="M220.457 163.758h7v11h-7zm0 0" fill="#fff"/><use xlink:href="#b" x="220.457" y="172.421" fill="#00f"/><path d="M243.28 155.918l21.47 10.496M243.28 155.918l-1.64-23.844M222.598 193.14l-11.49 3.282" stroke-width="1.2" stroke="#000" stroke-miterlimit="10" fill="none"/><path d="M211.11 196.422l-11.49 3.28" stroke-width="1.2" stroke="#00f" stroke-miterlimit="10" fill="none"/><path d="M218.758 188.39l-9.192 2.626" stroke-width="1.2" stroke="#000" stroke-miterlimit="10" fill="none"/><path d="M209.566 191.016l-9.19 2.625" stroke-width="1.2" stroke="#00f" stroke-miterlimit="10" fill="none"/><path d="M222.598 193.14l18.816 14.73" stroke-width="1.2" stroke="#000" stroke-miterlimit="10" fill="none"/><path d="M199.62 199.703l-6.67-9.914" stroke-width="1.2" stroke="#00f" stroke-miterlimit="10" fill="none"/><path d="M192.95 189.79l-6.673-9.91" stroke-width="1.2" stroke="#000" stroke-miterlimit="10" fill="none"/><path d="M196.62 194.203h7v11h-7zm0 0" fill="#fff"/><use xlink:href="#b" x="196.621" y="202.866" fill="#00f"/><path d="M131.47 143.645l-16.622 17.17M125.766 141.453L112.47 155.19" stroke-width="1.2" stroke="#000" stroke-miterlimit="10" fill="none"/></g></svg>
